X: 132086
T: Mick Liddy's Fancy
C: Joe Liddy
Z: BB
S: "The Leitrim Fiddler" (Dublin 1981)
L: 1/8
M: 6/8
R: jig
Q: 1/4 = 170
K: G
g/e/ | dBG AGF | GAG GBd | edB dBG | ABA ABc |
dBG AGE | GED GBd | ged edB | GAG G2 :|
e/f/ | gag edB | edB GBd | gag edB | ABG Abd |
gab gag | edB ABd | egd edB | GAG G2 :|
D | GAB dBd | edB dcA | GAB dBd | edB A2D |
GAB dBd | edB deg | edB gdB | GAG G2 :|
A | GED GBd | edB AGE | EDE GBd | ede g2a |
bag age | eBG AGE | GBd edB | gdB G2 :|
%%%%%%%%%%%%%%%%%%
